X: 1
T: Kongen
T: the King
R: halling
S: printed MS of unknown origin
M: 2/4
L: 1/16
K: G
[|"G"G2gf "C"edef | "G"g3d B2G2 | "G"G2gf "C"edef | "G"g3d B2G2 |
| "G"G2gf "C"edef | "G"g2bg "D"afd2 | "G"d2gf "C"edef | "G"g2bg "D"afd2 |]
|:"C"c3B c2e2 | "G"dB"D"cA "G"B2G2 | "C"c2{d}cB "D"c2e2 | "G"dB"D"cA "G"G4 :|
